static/assets/images/products/kubestash/addons/redis-stash-addon.svg

<svg width="32" height="32" viewBox="0 0 32 32" fill="none" xmlns="http://www.w3.org/2000/svg">
<g clip-path="url(#clip0)">
<path d="M32 8.78244C32 9.42116 32 10.0918 32 10.7305C32.0319 10.8583 32 11.018 31.9042 11.1138C31.8403 11.2415 31.7126 11.3054 31.5848 11.3693L18.2675 16.6387L16.2236 17.4371C16.0319 17.501 15.8403 17.501 15.6806 17.4371L0.383234 11.3693C0.255489 11.3373 0.159681 11.2735 0.0958084 11.1457C0.0319361 11.0499 0 10.9222 0 10.7944C0 9.45309 0 8.11178 0 6.77046C0 6.64272 0.0319361 6.51497 0.0958084 6.38723C0.159681 6.29142 0.287425 6.19561 0.41517 6.16367C5.49302 4.1517 10.5709 2.13972 15.6487 0.0638723C15.7765 0.0319361 15.8723 0 16 0C16.1277 0 16.2236 0.0319361 16.3513 0.0638723L31.5529 6.13174C31.6487 6.16367 31.7126 6.19561 31.7765 6.22755C31.8403 6.29142 31.9042 6.35529 31.9361 6.41916C31.9681 6.48303 32 6.57884 32.0319 6.64271C32.0319 6.73852 32.0319 6.8024 32 6.8982C32 7.53693 32 8.20759 32 8.87824V8.78244ZM7.79242 5.26946C7.37725 5.23753 6.93014 5.23753 6.51497 5.26946C5.84431 5.33333 5.20559 5.55689 4.66268 5.94012C4.56687 6.00399 4.47106 6.0998 4.40719 6.22755C4.34331 6.35529 4.31138 6.4511 4.31138 6.57884C4.31138 6.70659 4.34331 6.83433 4.40719 6.93014C4.47106 7.05789 4.56687 7.12176 4.66268 7.21757C4.9501 7.44112 5.3014 7.63273 5.6527 7.76048C7.12176 8.27146 8.71856 8.33533 10.2196 7.88822C10.6347 7.76048 11.0499 7.56886 11.3693 7.28144C11.4651 7.21757 11.5609 7.12176 11.5928 7.02595C11.6567 6.93014 11.6886 6.8024 11.6886 6.70659C11.6886 6.57884 11.6567 6.48303 11.5928 6.38723C11.5289 6.29142 11.4651 6.19561 11.3693 6.13174C11.1457 5.90818 10.8902 5.7485 10.6028 5.6527C9.70859 5.33333 8.7505 5.20559 7.79242 5.26946ZM27.7525 6.73852H27.5609L23.3773 5.07784C23.2495 5.04591 23.1218 5.04591 22.994 5.07784L19.4491 6.48303L19.1617 6.61078L19.3533 6.73852L23.5689 8.46307C23.6966 8.49501 23.8563 8.49501 23.984 8.46307L27.4331 6.93014L27.7525 6.73852ZM18.6826 2.36327L16 2.81038C15.7765 2.87425 15.5529 2.87425 15.3293 2.81038L13.2854 1.98004H12.9341L13.6048 3.35329L10.6028 3.96008H10.8264L13.7006 4.21557C13.7964 4.21557 13.8922 4.24751 13.988 4.27944C14.0838 4.34331 14.1477 4.40719 14.1796 4.50299L14.7545 5.6527C15.2016 5.26946 15.6168 4.88623 16.0639 4.56687C16.1916 4.43912 16.3832 4.37525 16.5749 4.37525L18.8743 4.56687H19.8004V4.50299L17.2136 3.51297L18.6826 2.36327ZM16.6707 11.9441L18.2994 8.7505L10.8583 9.51697L16.6707 11.9441Z" fill="#1971BD"/>
<path d="M31.4252 13.8921L16.3832 19.8642C16.2555 19.9281 16.1277 19.96 16 19.96C15.8723 19.96 15.7445 19.9281 15.6168 19.8642L7.98403 16.8303L0 13.7644C0 13.7644 0 13.7644 0 13.9241C0 15.2654 0 16.6067 0 17.948C0 18.0758 0.0319361 18.2035 0.0958084 18.2993C0.127745 18.3313 0.159681 18.3632 0.191617 18.3951C0.606786 18.2035 1.02196 18.0758 1.43713 17.98C3.86427 17.469 6.06786 17.98 7.88822 19.7684C8.0479 19.9281 8.36727 20.0558 8.62276 20.0558C10.8263 20.0878 12.6148 21.4291 13.0619 23.5688L15.6487 24.5908C15.7445 24.6227 15.8723 24.6546 15.9681 24.6546C16.0639 24.6546 16.1916 24.6227 16.2874 24.5908L31.5848 18.6506C31.7126 18.6187 31.8084 18.5548 31.8723 18.4271C31.9361 18.3313 31.9681 18.2035 31.9681 18.0758C31.9681 16.7664 31.9681 15.3931 31.9681 14.0518C31.9681 13.956 31.9681 13.7644 31.9681 13.7644L31.4252 13.8921Z" fill="#1971BD"/>
<path d="M32 25.2294C32 23.92 32 22.6106 32 21.2693C32 21.1735 32 20.95 32 20.95L31.489 21.1416L16.3513 27.1775C16.2874 27.2094 16.2555 27.2094 16.1916 27.2414C16.5748 28.0078 16.7026 28.8701 16.5748 29.7005C16.4471 30.5308 16.1277 31.2973 15.6806 31.904C15.7764 31.936 15.8723 31.9679 15.9681 31.9679C16.0958 31.9679 16.1916 31.936 16.2874 31.904C21.3972 29.924 26.4431 27.8801 31.5209 25.8681C31.6487 25.8362 31.7764 25.7723 31.8722 25.6446C31.9681 25.4849 32 25.3571 32 25.2294Z" fill="#1971BD"/>
<path d="M5.33334 21.3333C6.89821 22.8981 8.52695 24.4949 10.1876 26.1556C9.42116 26.1556 8.6547 26.1556 7.82436 26.1556C7.82436 27.8482 7.82436 29.5089 7.82436 31.1696C6.09981 31.1696 4.47106 31.1696 2.77845 31.1696C2.77845 29.5089 2.77845 27.8802 2.77845 26.1875C1.94811 26.1875 1.18164 26.1875 0.38324 26.1875C2.07585 24.5269 3.7046 22.9301 5.33334 21.3333Z" fill="#1971BD"/>
</g>
<defs>
<clipPath id="clip0">
<rect width="32" height="31.9361" fill="white"/>
</clipPath>
</defs>
</svg>

<svg xmlns="http://www.w3.org/2000/svg" width="32" height="32" fill="none" xmlns:v="https://vecta.io/nano"><g clip-path="url(#A)" fill="#1971bd"><path d="M32 8.782v1.948a.42.42 0 0 1-.096.383c-.064.128-.192.192-.319.256l-13.317 5.269-2.044.798a.79.79 0 0 1-.543 0L.383 11.369c-.128-.032-.224-.096-.287-.224A.64.64 0 0 1 0 10.794V6.77a.85.85 0 0 1 .096-.383.59.59 0 0 1 .319-.224l15.234-6.1C15.777.032 15.872 0 16 0s.224.032.351.064l15.202 6.068a1.56 1.56 0 0 1 .224.096c.064.064.128.128.16.192s.064.16.096.224c0 .096 0 .16-.032.255v1.98-.096zM7.792 5.269a8.53 8.53 0 0 0-1.277 0 3.82 3.82 0 0 0-1.852.671.75.75 0 0 0-.255.287c-.063.127-.096.224-.096.351s.032.255.096.351c.064.128.16.192.255.287a3.72 3.72 0 0 0 .99.543c1.469.511 3.066.575 4.567.128.415-.128.83-.319 1.15-.607.096-.064.192-.16.223-.255.064-.096.096-.224.096-.319a.54.54 0 0 0-.096-.319c-.064-.096-.128-.192-.223-.255a1.94 1.94 0 0 0-.767-.479 6.98 6.98 0 0 0-2.81-.383zm19.96 1.469h-.192l-4.184-1.661a.78.78 0 0 0-.383 0l-3.545 1.405-.287.128.192.128 4.216 1.725a.91.91 0 0 0 .415 0l3.449-1.533.319-.192zm-9.07-4.375L16 2.81a1.2 1.2 0 0 1-.671 0l-2.044-.83h-.351l.671 1.373-3.002.607h.224l2.874.255c.096 0 .192.032.287.064a.43.43 0 0 1 .192.224l.575 1.15 1.309-1.086c.128-.128.319-.192.511-.192l2.299.192h.926v-.064l-2.587-.99 1.469-1.15zm-2.012 9.581l1.629-3.194-7.441.766 5.812 2.427zm14.755 1.948l-15.042 5.972a.85.85 0 0 1-.383.096.85.85 0 0 1-.383-.096L7.984 16.83 0 13.764v.16 4.024c0 .128.032.255.096.351l.096.096c.415-.192.83-.319 1.246-.415 2.427-.511 4.631 0 6.451 1.788.16.16.479.287.735.287 2.204.032 3.992 1.373 4.439 3.513l2.587 1.022c.096.032.224.064.319.064a1.13 1.13 0 0 0 .319-.064l15.297-5.94c.128-.032.224-.096.287-.224.064-.096.096-.224.096-.351v-4.024-.287l-.543.128zM32 25.229v-3.96-.319l-.511.192-15.138 6.036c-.064.032-.096.032-.16.064.383.766.511 1.629.383 2.459s-.447 1.597-.894 2.203c.096.032.192.064.287.064.128 0 .224-.032.319-.064l15.234-6.036a.61.61 0 0 0 .351-.223c.096-.16.128-.288.128-.415zM5.333 21.333l4.854 4.822H7.824v5.014H2.778v-4.982H.383l4.95-4.854z"/></g><defs><clipPath id="A"><path fill="#fff" d="M0 0h32v31.936H0z"/></clipPath></defs></svg>
